packages/ffe-icons/icons/filled/sm/play_circle.svg

<svg xmlns="http://www.w3.org/2000/svg" height="20" viewBox="0 -960 960 960" width="20"><path d="m430.77-353.386 166.229-105.922q11.846-7.497 11.846-20.825t-11.846-20.559L430.77-606.614q-12.462-7.231-24.616-.45-12.153 6.782-12.153 21.142v211.844q0 14.36 12.153 21.142 12.154 6.781 24.616-.45Zm49.573 237.385q-75.112 0-141.48-28.42-66.369-28.42-116.182-78.21-49.814-49.791-78.247-116.087t-28.433-141.673q0-75.378 28.42-141.246 28.42-65.869 78.21-115.682 49.791-49.814 116.087-78.247t141.673-28.433q75.378 0 141.246 28.42 65.869 28.42 115.682 78.21 49.814 49.791 78.247 115.853t28.433 141.173q0 75.112-28.42 141.48-28.42 66.369-78.21 116.182-49.791 49.814-115.853 78.247t-141.173 28.433Z"/></svg>

<svg xmlns="http://www.w3.org/2000/svg" height="20" viewBox="0 -960 960 960" width="20"><path d="M430.77-353.39 597-459.31q11.84-7.49 11.84-20.82T597-500.69L430.77-606.61q-12.46-7.23-24.62-.45Q394-600.28 394-585.92v211.84q0 14.36 12.15 21.14 12.16 6.78 24.62-.45ZM480.34-116q-75.11 0-141.48-28.42-66.37-28.42-116.18-78.21-49.81-49.79-78.25-116.09Q116-405.01 116-480.39q0-75.38 28.42-141.25t78.21-115.68q49.79-49.81 116.09-78.25Q405.01-844 480.39-844q75.38 0 141.25 28.42t115.68 78.21q49.81 49.79 78.25 115.85Q844-555.45 844-480.34q0 75.11-28.42 141.48-28.42 66.37-78.21 116.18-49.79 49.81-115.85 78.25Q555.45-116 480.34-116Z"/></svg>
